;FLAVOR:Marlin
;TIME:12650
;Filament used: 12.2361m
;Layer height: 0.2
;MINX:4.778
;MINY:4.816
;MINZ:0.2
;MAXX:217.197
;MAXY:217.278
;MAXZ:6
;Generated with Cura_SteamEngine 5.0.0
M140 S60
M105
M190 S60
M104 S200
M105
M109 S200
M82 ;absolute extrusion mode
; Ender 3 Custom Start G-code
G92 E0 ; Reset Extruder
G28 ; Home all axes
G29 ;
G1 Z2.0 F3000 ; Move Z Axis up little to prevent scratching of Heat Bed
G1 X0.1 Y20 Z0.3 F5000.0 ; Move to start position
G1 X0.1 Y200.0 Z0.3 F1500.0 E15 ; Draw the first line
G1 X0.4 Y200.0 Z0.3 F5000.0 ; Move to side a little
G1 X0.4 Y20 Z0.3 F1500.0 E30 ; Draw the second line
G92 E0 ; Reset Extruder
G1 Z2.0 F3000 ; Move Z Axis up little to prevent scratching of Heat Bed
G1 X5 Y20 Z0.3 F5000.0 ; Move over to prevent blob squish
G92 E0
G92 E0
G1 F1500 E-6.5
;LAYER_COUNT:30
;LAYER:0
M107
G0 F6000 X13.405 Y10.659 Z0.2
G0 X10.282 Y13.81
;TYPE:SKIRT
G1 F1500 E0
G1 F1200 X10.577 Y13.488 E0.01452
G1 X13.405 Y10.659 E0.14757
G1 X13.701 Y10.386 E0.16096
G1 X15.51 Y8.847 E0.23996
G1 X16.136 Y8.393 E0.26568
G1 X18.124 Y7.174 E0.34324
G1 X18.825 Y6.816 E0.36942
G1 X21.001 Y5.915 E0.44775
G1 X21.747 Y5.673 E0.47384
G1 X24.034 Y5.124 E0.55206
G1 X24.808 Y5.001 E0.57813
G1 X27.156 Y4.816 E0.65647
G1 X27.942 Y4.816 E0.68261
G1 X30.289 Y5.001 E0.76091
G1 X31.063 Y5.124 E0.78698
G1 X33.351 Y5.673 E0.86524
G1 X34.097 Y5.915 E0.89132
G1 X36.271 Y6.815 E0.96958
G1 X36.971 Y7.172 E0.99572
G1 X38.978 Y8.402 E1.07401
G1 X39.613 Y8.864 E1.10013
G1 X41.415 Y10.404 E1.17897
G1 X41.703 Y10.669 E1.19198
G1 X211.397 Y180.363 E9.17387
G1 X211.697 Y180.692 E9.18868
G1 X213.391 Y182.718 E9.27652
G1 X213.886 Y183.426 E9.30525
G1 X215.179 Y185.667 E9.3913
G1 X215.546 Y186.456 E9.42024
G1 X216.44 Y188.912 E9.50717
G1 X216.666 Y189.753 E9.53614
G1 X217.121 Y192.331 E9.62321
G1 X217.197 Y193.2 E9.65222
G1 X217.197 Y195.813 E9.73913
G1 X217.121 Y196.681 E9.76811
G1 X216.667 Y199.255 E9.85504
G1 X216.442 Y200.096 E9.884
G1 X215.547 Y202.556 E9.97107
G1 X215.179 Y203.346 E10.00005
G1 X213.874 Y205.608 E10.08691
G1 X213.374 Y206.322 E10.1159
G1 X211.693 Y208.326 E10.2029
G1 X211.398 Y208.649 E10.21745
G1 X208.57 Y211.477 E10.35047
G1 X208.247 Y211.772 E10.36502
G1 X206.243 Y213.453 E10.45202
G1 X205.528 Y213.953 E10.48103
G1 X203.264 Y215.259 E10.56797
G1 X202.477 Y215.626 E10.59685
G1 X200.019 Y216.521 E10.68385
G1 X199.178 Y216.747 E10.71282
G1 X196.602 Y217.202 E10.79982
G1 X195.732 Y217.278 E10.82887
G1 X193.12 Y217.278 E10.91574
G1 X192.25 Y217.202 E10.94479
G1 X189.674 Y216.747 E11.03179
G1 X188.827 Y216.519 E11.06097
G1 X186.352 Y215.614 E11.14862
G1 X185.571 Y215.249 E11.17729
G1 X183.324 Y213.953 E11.26357
G1 X182.609 Y213.453 E11.29258
G1 X180.605 Y211.772 E11.37958
G1 X180.282 Y211.477 E11.39413
G1 X10.577 Y41.772 E19.37653
G1 X10.282 Y41.449 E19.39108
G1 X8.601 Y39.445 E19.47808
G1 X8.101 Y38.731 E19.50707
G1 X6.796 Y36.469 E19.59393
G1 X6.428 Y35.679 E19.62292
G1 X5.533 Y33.219 E19.70998
G1 X5.308 Y32.378 E19.73894
G1 X4.854 Y29.804 E19.82587
G1 X4.778 Y28.936 E19.85485
G1 X4.778 Y26.323 E19.94176
G1 X4.854 Y25.455 E19.97074
G1 X5.308 Y22.881 E20.05767
G1 X5.533 Y22.04 E20.08663
G1 X6.428 Y19.58 E20.1737
G1 X6.796 Y18.79 E20.20268
G1 X8.101 Y16.528 E20.28954
G1 X8.601 Y15.814 E20.31853
G1 X10.282 Y13.81 E20.40553
G1 F1500 E13.90553
G0 F6000 X11.923 Y18.6
G0 X12.279 Y18.898
G1 F1500 E20.40553
G1 F1200 X13.972 Y16.882 E20.49309
G1 X16.811 Y14.042 E20.62665
G1 X18.645 Y12.485 E20.70667
G1 X20.661 Y11.251 E20.78528
G1 X22.867 Y10.341 E20.86465
G1 X25.185 Y9.787 E20.94392
G1 X27.565 Y9.602 E21.02332
G1 X29.943 Y9.792 E21.10266
G1 X32.261 Y10.35 E21.18196
G1 X34.463 Y11.264 E21.26126
G1 X36.495 Y12.513 E21.34059
G1 X38.297 Y14.053 E21.41943
G1 X208.014 Y183.771 E29.40242
G1 X209.728 Y185.825 E29.4914
G1 X211.036 Y188.098 E29.57862
G1 X211.939 Y190.587 E29.66669
G1 X212.397 Y193.2 E29.75492
G1 X212.394 Y195.848 E29.843
G1 X211.931 Y198.455 E29.93106
G1 X211.021 Y200.947 E30.0193
G1 X209.696 Y203.238 E30.10732
G1 X208.015 Y205.242 E30.19432
G1 X205.163 Y208.094 E30.32847
G1 X203.13 Y209.795 E30.41664
G1 X200.834 Y211.116 E30.50474
G1 X198.343 Y212.02 E30.59288
G1 X195.732 Y212.478 E30.68104
G1 X193.085 Y212.475 E30.76908
G1 X190.475 Y212.011 E30.85725
G1 X187.969 Y211.091 E30.94604
G1 X185.693 Y209.775 E31.03349
G1 X183.689 Y208.094 E31.12048
G1 X13.96 Y38.365 E39.10402
G1 X12.259 Y36.332 E39.19218
G1 X10.939 Y34.038 E39.28021
G1 X10.035 Y31.545 E39.36841
G1 X9.578 Y28.936 E39.45651
G1 X9.581 Y26.288 E39.54458
G1 X10.044 Y23.681 E39.63265
G1 X10.954 Y21.189 E39.72088
G1 X12.279 Y18.898 E39.80891
G1 F1500 E33.30891
G0 F6000 X11.874 Y18.665
G0 X10.521 Y21.009
G0 X9.588 Y23.575
G0 X9.641 Y23.645
G1 F1500 E39.80891
G1 F1200 X9.668 Y23.544 E39.81239
G1 X10.563 Y21.084 E39.89945
G1 X10.607 Y20.989 E39.90293
G1 X11.912 Y18.727 E39.98979
G1 X11.972 Y18.641 E39.99328
G1 X13.689 Y16.599 E40.08202
G1 X16.552 Y13.737 E40.21666
G1 X18.361 Y12.198 E40.29565
G1 X18.436 Y12.144 E40.29873
G1 X20.424 Y10.925 E40.37629
G1 X20.508 Y10.882 E40.37943
G1 X22.684 Y9.981 E40.45776
G1 X22.774 Y9.952 E40.46091
G1 X25.061 Y9.403 E40.53913
G1 X25.154 Y9.388 E40.54227
G1 X27.502 Y9.203 E40.6206
G1 X27.596 Y9.203 E40.62373
G1 X29.943 Y9.388 E40.70203
G1 X30.036 Y9.403 E40.70517
G1 X32.324 Y9.952 E40.78343
G1 X32.414 Y9.981 E40.78657
G1 X34.588 Y10.881 E40.86483
G1 X34.672 Y10.923 E40.86795
G1 X36.679 Y12.153 E40.94624
G1 X36.755 Y12.209 E40.94938
G1 X38.591 Y13.781 E41.02978
G1 X208.321 Y183.514 E49.01342
G1 X210.015 Y185.54 E49.10126
G1 X210.075 Y185.625 E49.10472
G1 X211.368 Y187.866 E49.19077
G1 X211.412 Y187.961 E49.19426
G1 X212.306 Y190.417 E49.28119
G1 X212.333 Y190.518 E49.28466
G1 X212.788 Y193.096 E49.37173
G1 X212.797 Y193.2 E49.37521
G1 X212.797 Y195.813 E49.46211
G1 X212.788 Y195.917 E49.46559
G1 X212.334 Y198.491 E49.55252
G1 X212.307 Y198.592 E49.556
G1 X211.412 Y201.052 E49.64306
G1 X211.368 Y201.147 E49.64655
G1 X210.063 Y203.409 E49.7334
G1 X210.003 Y203.495 E49.73689
G1 X208.286 Y205.537 E49.82563
G1 X205.42 Y208.401 E49.96039
G1 X203.416 Y210.082 E50.04739
G1 X203.33 Y210.142 E50.05087
G1 X201.066 Y211.448 E50.1378
G1 X200.971 Y211.492 E50.14129
G1 X198.513 Y212.387 E50.22829
G1 X198.412 Y212.414 E50.23177
G1 X195.836 Y212.869 E50.31877
G1 X195.732 Y212.878 E50.32224
G1 X193.12 Y212.878 E50.40912
G1 X193.016 Y212.869 E50.41259
G1 X190.44 Y212.414 E50.4996
G1 X190.338 Y212.387 E50.50311
G1 X187.863 Y211.482 E50.59076
G1 X187.769 Y211.438 E50.59421
G1 X185.522 Y210.142 E50.68048
G1 X185.436 Y210.082 E50.68397
G1 X183.394 Y208.365 E50.77271
G1 X13.653 Y38.622 E58.75685
G1 X11.972 Y36.618 E58.84385
G1 X11.912 Y36.532 E58.84733
G1 X10.607 Y34.27 E58.93419
G1 X10.563 Y34.175 E58.93767
G1 X9.668 Y31.715 E59.02474
G1 X9.641 Y31.614 E59.02822
G1 X9.187 Y29.04 E59.11515
G1 X9.178 Y28.936 E59.11862
G1 X9.178 Y26.323 E59.20553
G1 X9.187 Y26.219 E59.209
G1 X9.641 Y23.645 E59.29594
G0 F6000 X8.778 Y26.323
G1 F1200 X8.793 Y26.149 E59.30175
G1 X9.247 Y23.575 E59.38868
G1 X9.292 Y23.407 E59.39446
G1 X10.187 Y20.947 E59.48153
G1 X10.261 Y20.789 E59.48733
G1 X11.566 Y18.527 E59.57419
G1 X11.666 Y18.384 E59.57999
G1 X13.406 Y16.316 E59.66988
G1 X16.293 Y13.432 E59.80561
G1 X18.102 Y11.893 E59.8846
G1 X18.227 Y11.803 E59.88973
G1 X20.215 Y10.584 E59.96729
G1 X20.355 Y10.512 E59.97253
G1 X22.531 Y9.611 E60.05086
G1 X22.681 Y9.563 E60.0561
G1 X24.968 Y9.014 E60.13432
G1 X25.122 Y8.989 E60.13951
G1 X27.47 Y8.804 E60.21785
G1 X27.628 Y8.804 E60.2231
G1 X29.975 Y8.989 E60.30141
G1 X30.129 Y9.014 E60.3066
G1 X32.417 Y9.563 E60.38486
G1 X32.567 Y9.611 E60.39009
G1 X34.741 Y10.511 E60.46835
G1 X34.881 Y10.582 E60.47357
G1 X36.888 Y11.812 E60.55187
G1 X37.015 Y11.905 E60.5571
G1 X38.874 Y13.498 E60.63853
G1 X208.628 Y183.258 E68.62338
G1 X210.322 Y185.284 E68.71121
G1 X210.421 Y185.425 E68.71694
G1 X211.714 Y187.666 E68.803
G1 X211.788 Y187.824 E68.8088
G1 X212.682 Y190.28 E68.89573
G1 X212.727 Y190.448 E68.90151
G1 X213.182 Y193.026 E68.98858
G1 X213.197 Y193.2 E68.99439
G1 X213.197 Y195.813 E69.0813
G1 X213.182 Y195.987 E69.08711
G1 X212.728 Y198.561 E69.17404
G1 X212.683 Y198.729 E69.17983
G1 X211.788 Y201.189 E69.26689
G1 X211.714 Y201.347 E69.2727
G1 X210.409 Y203.609 E69.35956
G1 X210.309 Y203.752 E69.36536
G1 X208.569 Y205.82 E69.45525
G1 X205.677 Y208.707 E69.59116
G1 X203.673 Y210.388 E69.67816
G1 X203.53 Y210.488 E69.68396
G1 X201.266 Y211.794 E69.7709
G1 X201.108 Y211.868 E69.7767
G1 X198.65 Y212.763 E69.8637
G1 X198.482 Y212.808 E69.86949
G1 X195.906 Y213.263 E69.95649
G1 X195.732 Y213.278 E69.9623
G1 X193.12 Y213.278 E70.04918
G1 X192.946 Y213.263 E70.05498
G1 X190.37 Y212.808 E70.14199
G1 X190.201 Y212.762 E70.14781
G1 X187.726 Y211.857 E70.23546
G1 X187.569 Y211.784 E70.24122
G1 X185.322 Y210.488 E70.3275
G1 X185.179 Y210.388 E70.3333
G1 X183.111 Y208.648 E70.42319
G1 X13.347 Y38.879 E78.40849
G1 X11.666 Y36.875 E78.49548
G1 X11.566 Y36.732 E78.50129
G1 X10.261 Y34.47 E78.58815
G1 X10.187 Y34.312 E78.59395
G1 X9.292 Y31.852 E78.68102
G1 X9.247 Y31.684 E78.6868
G1 X8.793 Y29.11 E78.77373
G1 X8.778 Y28.936 E78.77954
G1 X8.778 Y26.323 E78.86645
G0 F6000 X8.378 Y26.323
G1 F1200 X8.399 Y26.08 E78.87456
G1 X8.853 Y23.506 E78.9615
G1 X8.916 Y23.27 E78.96962
G1 X9.811 Y20.81 E79.05669
G1 X9.914 Y20.589 E79.0648
G1 X11.219 Y18.327 E79.15165
G1 X11.359 Y18.127 E79.15977
G1 X13.04 Y16.123 E79.24677
G1 X15.951 Y13.204 E79.38388
G1 X17.843 Y11.589 E79.46662
G1 X18.018 Y11.462 E79.47381
G1 X20.006 Y10.243 E79.55137
G1 X20.202 Y10.142 E79.55871
G1 X22.378 Y9.241 E79.63704
G1 X22.587 Y9.174 E79.64434
G1 X24.874 Y8.625 E79.72257
G1 X25.091 Y8.59 E79.72988
G1 X27.439 Y8.405 E79.80821
G1 X27.659 Y8.405 E79.81553
G1 X30.006 Y8.59 E79.89384
G1 X30.223 Y8.625 E79.90115
G1 X32.511 Y9.174 E79.97941
G1 X32.72 Y9.241 E79.98671
G1 X34.894 Y10.141 E80.06496
G1 X35.09 Y10.241 E80.07228
G1 X37.097 Y11.471 E80.15057
G1 X37.275 Y11.601 E80.15791
G1 X39.157 Y13.215 E80.24037
G1 X208.851 Y182.909 E88.22225
G1 X208.935 Y183.001 E88.2264
G1 X210.629 Y185.027 E88.31423
G1 X210.768 Y185.225 E88.32228
G1 X212.061 Y187.466 E88.40833
G1 X212.164 Y187.687 E88.41644
G1 X213.058 Y190.143 E88.50337
G1 X213.121 Y190.379 E88.5115
G1 X213.576 Y192.957 E88.59857
G1 X213.597 Y193.2 E88.60668
G1 X213.597 Y195.813 E88.69359
G1 X213.576 Y196.056 E88.7017
G1 X213.122 Y198.63 E88.78863
G1 X213.059 Y198.866 E88.79676
G1 X212.164 Y201.326 E88.88382
G1 X212.061 Y201.547 E88.89193
G1 X210.756 Y203.809 E88.97879
G1 X210.616 Y204.009 E88.98691
G1 X208.935 Y206.013 E89.07391
G1 X206.024 Y208.931 E89.211
G1 X205.934 Y209.014 E89.21507
G1 X203.93 Y210.695 E89.30207
G1 X203.73 Y210.835 E89.31019
G1 X201.466 Y212.141 E89.39712
G1 X201.245 Y212.244 E89.40523
G1 X198.787 Y213.139 E89.49223
G1 X198.552 Y213.202 E89.50032
G1 X195.976 Y213.657 E89.58733
G1 X195.732 Y213.678 E89.59547
G1 X193.12 Y213.678 E89.68235
G1 X192.876 Y213.657 E89.69049
G1 X190.3 Y213.202 E89.7775
G1 X190.063 Y213.138 E89.78566
G1 X187.588 Y212.233 E89.87331
G1 X187.37 Y212.131 E89.88132
G1 X185.123 Y210.835 E89.96759
G1 X184.922 Y210.695 E89.97574
G1 X182.918 Y209.014 E90.06274
G1 X13.123 Y39.226 E98.04921
G1 X13.04 Y39.136 E98.05328
G1 X11.359 Y37.132 E98.14028
G1 X11.219 Y36.932 E98.1484
G1 X9.914 Y34.67 E98.23526
G1 X9.811 Y34.449 E98.24337
G1 X8.916 Y31.989 E98.33043
G1 X8.853 Y31.753 E98.33856
G1 X8.399 Y29.179 E98.42549
G1 X8.378 Y28.936 E98.4336
G1 X8.378 Y26.323 E98.52051
G0 F6000 X7.978 Y26.323
G1 F1200 X8.005 Y26.01 E98.53096
G1 X8.459 Y23.436 E98.61789
G1 X8.54 Y23.134 E98.62829
G1 X9.435 Y20.674 E98.71536
G1 X9.568 Y20.389 E98.72582
G1 X10.873 Y18.127 E98.81268
G1 X11.053 Y17.87 E98.82311
G1 X12.734 Y15.866 E98.91011
G1 X12.84 Y15.75 E98.91534
G1 X15.668 Y12.921 E99.04838
G1 X17.584 Y11.284 E99.1322
G1 X17.809 Y11.121 E99.14144
G1 X19.797 Y9.902 E99.219
G1 X20.049 Y9.773 E99.22842
G1 X22.225 Y8.872 E99.30675
G1 X22.494 Y8.785 E99.31616
G1 X24.781 Y8.236 E99.39438
G1 X25.06 Y8.192 E99.40378
G1 X27.408 Y8.007 E99.48211
G1 X27.69 Y8.007 E99.49149
G1 X30.037 Y8.192 E99.5698
G1 X30.316 Y8.236 E99.57919
G1 X32.604 Y8.785 E99.65745
G1 X32.873 Y8.872 E99.66685
G1 X35.047 Y9.772 E99.74511
G1 X35.299 Y9.9 E99.75451
G1 X37.306 Y11.13 E99.83281
G1 X37.534 Y11.297 E99.8422
G1 X39.44 Y12.932 E99.92573
G1 X209.134 Y182.626 E107.90761
G1 X209.242 Y182.744 E107.91293
G1 X210.936 Y184.77 E108.00077
G1 X211.114 Y185.025 E108.01111
G1 X212.407 Y187.266 E108.09717
G1 X212.539 Y187.55 E108.10758
G1 X213.433 Y190.006 E108.19451
G1 X213.515 Y190.309 E108.20495
G1 X213.97 Y192.887 E108.29202
G1 X213.997 Y193.2 E108.30247
G1 X213.997 Y195.813 E108.38938
G1 X213.97 Y196.126 E108.39983
G1 X213.516 Y198.7 E108.48676
G1 X213.435 Y199.002 E108.49716
G1 X212.54 Y201.462 E108.58423
G1 X212.407 Y201.747 E108.59469
G1 X211.102 Y204.009 E108.68155
G1 X210.922 Y204.266 E108.69198
G1 X209.241 Y206.27 E108.77898
G1 X209.135 Y206.386 E108.78421
G1 X206.307 Y209.214 E108.91723
G1 X206.191 Y209.32 E108.92245
G1 X204.187 Y211.001 E109.00945
G1 X203.929 Y211.181 E109.01991
G1 X201.665 Y212.487 E109.10685
G1 X201.382 Y212.619 E109.11723
G1 X198.924 Y213.514 E109.20424
G1 X198.621 Y213.596 E109.21468
G1 X196.045 Y214.051 E109.30168
G1 X195.732 Y214.078 E109.31213
G1 X193.12 Y214.078 E109.39901
G1 X192.807 Y214.051 E109.40945
G1 X190.231 Y213.596 E109.49646
G1 X189.926 Y213.514 E109.50696
G1 X187.451 Y212.609 E109.59461
G1 X187.17 Y212.477 E109.60494
G1 X184.923 Y211.181 E109.69121
G1 X184.665 Y211.001 E109.70168
G1 X182.661 Y209.32 E109.78868
G1 X182.545 Y209.214 E109.7939
G1 X12.84 Y39.509 E117.7763
G1 X12.734 Y39.393 E117.78153
G1 X11.053 Y37.389 E117.86853
G1 X10.873 Y37.132 E117.87896
G1 X9.568 Y34.87 E117.96582
G1 X9.435 Y34.585 E117.97628
G1 X8.54 Y32.125 E118.06335
G1 X8.459 Y31.823 E118.07375
G1 X8.005 Y29.249 E118.16068
G1 X7.978 Y28.936 E118.17113
G1 X7.978 Y26.323 E118.25804
G0 F6000 X7.578 Y26.323
G1 F1200 X7.611 Y25.941 E118.27079
G1 X8.065 Y23.367 E118.35773
G1 X8.165 Y22.997 E118.37047
G1 X9.06 Y20.537 E118.45754
G1 X9.221 Y20.19 E118.47026
G1 X10.526 Y17.928 E118.55712
G1 X10.746 Y17.613 E118.5699
G1 X12.427 Y15.609 E118.6569
G1 X12.557 Y15.468 E118.66328
G1 X15.385 Y12.639 E118.79632
G1 X15.515 Y12.518 E118.80223
G1 X17.324 Y10.979 E118.88122
G1 X17.6 Y10.78 E118.89254
G1 X19.588 Y9.561 E118.9701
G1 X19.896 Y9.403 E118.98161
G1 X22.072 Y8.502 E119.05995
G1 X22.4 Y8.396 E119.07141
G1 X24.687 Y7.847 E119.14964
G1 X25.028 Y7.793 E119.16112
G1 X27.376 Y7.608 E119.23946
G1 X27.722 Y7.608 E119.25097
G1 X30.069 Y7.793 E119.32927
G1 X30.409 Y7.847 E119.34072
G1 X32.697 Y8.396 E119.41898
G1 X33.026 Y8.502 E119.43048
G1 X35.2 Y9.402 E119.50874
G1 X35.508 Y9.559 E119.52023
G1 X37.515 Y10.789 E119.59853
G1 X37.794 Y10.993 E119.61002
G1 X39.596 Y12.533 E119.68886
G1 X39.723 Y12.649 E119.69458
G1 X209.417 Y182.343 E127.67647
G1 X209.549 Y182.488 E127.68299
G1 X211.243 Y184.514 E127.77083
G1 X211.461 Y184.826 E127.78348
G1 X212.754 Y187.067 E127.86954
G1 X212.915 Y187.413 E127.88223
G1 X213.809 Y189.869 E127.96916
G1 X213.909 Y190.24 E127.98194
G1 X214.364 Y192.818 E128.06901
G1 X214.397 Y193.2 E128.08176
G1 X214.397 Y195.813 E128.16867
G1 X214.364 Y196.195 E128.18142
G1 X213.91 Y198.769 E128.26836
G1 X213.81 Y199.139 E128.28111
G1 X212.915 Y201.599 E128.36817
G1 X212.754 Y201.946 E128.3809
G1 X211.449 Y204.208 E128.46775
G1 X211.229 Y204.523 E128.48053
G1 X209.548 Y206.527 E128.56753
G1 X209.418 Y206.669 E128.57393
G1 X206.59 Y209.497 E128.70695
G1 X206.448 Y209.627 E128.71336
G1 X204.444 Y211.308 E128.80035
G1 X204.129 Y211.528 E128.81313
G1 X201.865 Y212.834 E128.90007
G1 X201.519 Y212.995 E128.91276
G1 X199.061 Y213.89 E128.99976
G1 X198.691 Y213.989 E129.0125
G1 X196.115 Y214.444 E129.09951
G1 X195.732 Y214.478 E129.11229
G1 X193.12 Y214.478 E129.19917
G1 X192.737 Y214.444 E129.21196
G1 X190.161 Y213.989 E129.29896
G1 X189.788 Y213.889 E129.31181
G1 X187.313 Y212.984 E129.39946
G1 X186.97 Y212.824 E129.41204
G1 X184.723 Y211.528 E129.49832
G1 X184.408 Y211.308 E129.5111
G1 X182.404 Y209.627 E129.5981
G1 X182.262 Y209.497 E129.6045
