;FLAVOR:Marlin
;TIME:16033
;Filament used: 20.5694m
;Layer height: 0.28
;MINX:47.914
;MINY:47.912
;MINZ:0.28
;MAXX:172.088
;MAXY:172.086
;MAXZ:57.96
;Generated with Cura_SteamEngine 5.0.0
M140 S60
M105
M190 S60
M104 S200
M105
M109 S200
M82 ;absolute extrusion mode
; Ender 3 Custom Start G-code
G92 E0 ; Reset Extruder
G28 ; Home all axes
G29 ;
G1 Z2.0 F3000 ; Move Z Axis up little to prevent scratching of Heat Bed
G1 X0.1 Y20 Z0.3 F5000.0 ; Move to start position
G1 X0.1 Y200.0 Z0.3 F1500.0 E15 ; Draw the first line
G1 X0.4 Y200.0 Z0.3 F5000.0 ; Move to side a little
G1 X0.4 Y20 Z0.3 F1500.0 E30 ; Draw the second line
G92 E0 ; Reset Extruder
G1 Z2.0 F3000 ; Move Z Axis up little to prevent scratching of Heat Bed
G1 X5 Y20 Z0.3 F5000.0 ; Move over to prevent blob squish
G92 E0
G92 E0
G1 F1500 E-6.5
;LAYER_COUNT:207
;LAYER:0
M107
G0 F6000 X70.691 Y51.89 Z0.28
G0 X68.088 Y58.914
;TYPE:SKIRT
G1 F1500 E0
G1 F1200 X68.128 Y58.283 E0.02944
G1 X68.184 Y57.941 E0.04558
G1 X68.64 Y55.643 E0.15467
G1 X68.802 Y55.032 E0.1841
G1 X69.039 Y54.446 E0.21354
G1 X69.389 Y53.835 E0.24632
G1 X70.691 Y51.89 E0.35531
G1 X71.075 Y51.388 E0.38474
G1 X71.52 Y50.938 E0.41421
G1 X72.065 Y50.516 E0.44631
G1 X74.01 Y49.214 E0.55529
G1 X74.556 Y48.896 E0.58471
G1 X75.138 Y48.65 E0.61414
G1 X75.816 Y48.465 E0.64686
G1 X78.115 Y48.008 E0.75601
G1 X78.742 Y47.924 E0.78546
G1 X79.09 Y47.912 E0.80168
G1 X161.086 Y47.912 E4.61975
G1 X161.717 Y47.952 E4.64919
G1 X162.061 Y48.008 E4.66542
G1 X164.359 Y48.465 E4.77452
G1 X164.97 Y48.627 E4.80396
G1 X165.556 Y48.865 E4.83341
G1 X166.165 Y49.214 E4.86609
G1 X168.11 Y50.516 E4.97508
G1 X168.612 Y50.9 E5.00451
G1 X169.062 Y51.345 E5.03398
G1 X169.484 Y51.89 E5.06607
G1 X170.786 Y53.835 E5.17506
G1 X171.104 Y54.381 E5.20448
G1 X171.35 Y54.963 E5.2339
G1 X171.535 Y55.641 E5.26663
G1 X171.992 Y57.939 E5.37573
G1 X172.076 Y58.565 E5.40514
G1 X172.088 Y58.914 E5.4214
G1 X172.088 Y140.91 E9.23948
G1 X172.048 Y141.541 E9.26892
G1 X171.992 Y141.885 E9.28515
G1 X171.535 Y144.184 E9.39429
G1 X171.373 Y144.795 E9.42373
G1 X171.135 Y145.38 E9.45313
G1 X170.786 Y145.99 E9.48586
G1 X169.484 Y147.935 E9.59484
G1 X169.1 Y148.437 E9.62427
G1 X168.655 Y148.887 E9.65374
G1 X168.11 Y149.309 E9.68584
G1 X166.165 Y150.611 E9.79483
G1 X165.619 Y150.929 E9.82425
G1 X165.037 Y151.175 E9.85367
G1 X164.357 Y151.36 E9.88648
G1 X162.059 Y151.816 E9.99557
G1 X161.433 Y151.9 E10.02499
G1 X161.086 Y151.912 E10.04115
G1 X112.285 Y151.912 E12.31353
G1 X103.479 Y152.605 E12.72484
G1 X95.092 Y154.619 E13.12648
G1 X87.114 Y157.923 E13.52857
G1 X79.765 Y162.426 E13.9299
G1 X73.053 Y168.159 E14.34092
G1 X70.592 Y170.622 E14.50305
G1 X70.118 Y171.04 E14.53248
G1 X69.595 Y171.395 E14.56191
G1 X69.031 Y171.681 E14.59136
G1 X68.435 Y171.894 E14.62083
G1 X67.818 Y172.029 E14.65024
G1 X67.189 Y172.086 E14.67965
G1 X66.557 Y172.063 E14.7091
G1 X65.933 Y171.96 E14.73855
G1 X65.327 Y171.78 E14.76798
G1 X64.749 Y171.524 E14.79742
G1 X64.208 Y171.198 E14.82683
G1 X63.519 Y170.624 E14.86859
G1 X49.376 Y156.481 E15.79993
G1 X48.959 Y156.006 E15.82936
G1 X48.604 Y155.483 E15.85879
G1 X48.318 Y154.919 E15.88824
G1 X48.106 Y154.324 E15.91765
G1 X47.97 Y153.706 E15.94712
G1 X47.914 Y153.077 E15.97652
G1 X47.937 Y152.445 E16.00597
G1 X48.04 Y151.821 E16.03542
G1 X48.221 Y151.215 E16.06487
G1 X48.476 Y150.637 E16.09428
G1 X48.803 Y150.096 E16.12372
G1 X49.378 Y149.408 E16.16547
G1 X51.842 Y146.946 E16.32766
G1 X57.573 Y140.235 E16.7386
G1 X62.078 Y132.884 E17.14005
G1 X65.382 Y124.904 E17.54223
G1 X67.395 Y116.522 E17.94363
G1 X68.088 Y107.715 E18.35498
G1 X68.088 Y58.914 E20.62736
G0 F6000 X68.488 Y58.914
G1 F1200 X68.576 Y58.019 E20.66924
G1 X69.032 Y55.721 E20.77833
G1 X69.189 Y55.135 E20.80658
G1 X69.422 Y54.575 E20.83482
G1 X69.721 Y54.057 E20.86267
G1 X71.023 Y52.112 E20.97166
G1 X71.393 Y51.632 E20.99988
G1 X71.823 Y51.204 E21.02813
G1 X72.287 Y50.848 E21.05536
G1 X74.232 Y49.546 E21.16435
G1 X74.757 Y49.243 E21.19257
G1 X75.317 Y49.011 E21.2208
G1 X75.894 Y48.857 E21.24861
G1 X78.193 Y48.4 E21.35775
G1 X79.09 Y48.312 E21.39972
G1 X161.086 Y48.312 E25.2178
G1 X161.983 Y48.4 E25.25977
G1 X164.281 Y48.857 E25.36887
G1 X164.867 Y49.015 E25.39713
G1 X165.427 Y49.247 E25.42535
G1 X165.943 Y49.546 E25.45312
G1 X167.888 Y50.848 E25.56211
G1 X168.368 Y51.218 E25.59033
G1 X168.796 Y51.648 E25.61858
G1 X169.152 Y52.112 E25.64581
G1 X170.454 Y54.057 E25.7548
G1 X170.757 Y54.582 E25.78302
G1 X170.989 Y55.142 E25.81125
G1 X171.143 Y55.719 E25.83906
G1 X171.6 Y58.017 E25.94816
G1 X171.688 Y58.914 E25.99012
G1 X171.688 Y140.91 E29.8082
G1 X171.6 Y141.807 E29.85017
G1 X171.143 Y144.106 E29.95932
G1 X170.986 Y144.691 E29.98752
G1 X170.753 Y145.251 E30.01576
G1 X170.454 Y145.768 E30.04357
G1 X169.152 Y147.713 E30.15256
G1 X168.782 Y148.193 E30.18078
G1 X168.352 Y148.621 E30.20903
G1 X167.888 Y148.977 E30.23626
G1 X165.943 Y150.279 E30.34525
G1 X165.418 Y150.582 E30.37347
G1 X164.858 Y150.814 E30.4017
G1 X164.279 Y150.968 E30.4296
G1 X161.981 Y151.424 E30.53869
G1 X161.086 Y151.512 E30.58056
G1 X112.267 Y151.512 E32.85378
G1 X103.417 Y152.209 E33.26715
G1 X94.967 Y154.238 E33.6718
G1 X86.934 Y157.564 E34.07665
G1 X79.529 Y162.102 E34.48105
G1 X72.78 Y167.866 E34.89433
G1 X70.309 Y170.339 E35.05711
G1 X69.853 Y170.739 E35.08536
G1 X69.349 Y171.075 E35.11356
G1 X68.804 Y171.342 E35.14182
G1 X68.229 Y171.536 E35.17008
G1 X67.634 Y171.651 E35.1983
G1 X67.029 Y171.688 E35.22652
G1 X66.424 Y171.645 E35.25476
G1 X65.831 Y171.522 E35.28296
G1 X65.258 Y171.323 E35.31121
G1 X64.717 Y171.049 E35.33945
G1 X64.216 Y170.707 E35.36769
G1 X63.802 Y170.341 E35.39342
G1 X49.659 Y156.198 E36.32476
G1 X49.26 Y155.742 E36.35298
G1 X48.924 Y155.237 E36.38122
G1 X48.657 Y154.693 E36.40944
G1 X48.464 Y154.118 E36.43768
G1 X48.348 Y153.523 E36.46591
G1 X48.312 Y152.917 E36.49418
G1 X48.356 Y152.313 E36.52238
G1 X48.478 Y151.719 E36.55061
G1 X48.678 Y151.146 E36.57887
G1 X48.951 Y150.605 E36.60709
G1 X49.294 Y150.105 E36.63532
G1 X49.661 Y149.691 E36.66109
G1 X52.135 Y147.219 E36.82394
G1 X57.898 Y140.471 E37.23715
G1 X62.437 Y133.064 E37.64166
G1 X65.763 Y125.031 E38.0465
G1 X67.791 Y116.583 E38.45105
G1 X68.488 Y107.733 E38.86442
G1 X68.488 Y58.914 E41.13764
G0 F6000 X68.888 Y58.914
G1 F1200 X68.968 Y58.097 E41.17586
G1 X69.424 Y55.799 E41.28495
G1 X69.576 Y55.239 E41.31197
G1 X69.803 Y54.707 E41.3389
G1 X70.054 Y54.28 E41.36197
G1 X71.356 Y52.335 E41.47095
G1 X71.711 Y51.877 E41.49794
G1 X72.125 Y51.472 E41.52491
G1 X72.51 Y51.181 E41.54738
G1 X74.455 Y49.879 E41.65636
G1 X74.957 Y49.591 E41.68331
G1 X75.494 Y49.374 E41.71028
G1 X75.972 Y49.25 E41.73328
G1 X78.271 Y48.793 E41.84242
G1 X79.09 Y48.712 E41.88074
G1 X161.086 Y48.712 E45.69882
G1 X161.905 Y48.793 E45.73714
G1 X164.203 Y49.25 E45.84624
G1 X164.762 Y49.402 E45.87322
G1 X165.295 Y49.629 E45.90019
G1 X165.72 Y49.879 E45.92315
G1 X167.665 Y51.181 E46.03214
G1 X168.123 Y51.536 E46.05912
G1 X168.528 Y51.95 E46.08609
G1 X168.819 Y52.335 E46.10856
G1 X170.121 Y54.28 E46.21755
G1 X170.409 Y54.782 E46.2445
G1 X170.626 Y55.319 E46.27147
G1 X170.75 Y55.797 E46.29446
G1 X171.207 Y58.095 E46.40356
G1 X171.288 Y58.914 E46.44188
G1 X171.288 Y140.91 E50.25996
G1 X171.207 Y141.729 E50.29828
G1 X170.75 Y144.028 E50.40743
G1 X170.599 Y144.587 E50.43439
G1 X170.371 Y145.12 E50.46138
G1 X170.121 Y145.545 E50.48434
G1 X168.819 Y147.49 E50.59333
G1 X168.464 Y147.948 E50.62031
G1 X168.05 Y148.353 E50.64728
G1 X167.665 Y148.644 E50.66975
G1 X165.72 Y149.946 E50.77874
G1 X165.218 Y150.234 E50.80569
G1 X164.681 Y150.451 E50.83266
G1 X164.201 Y150.576 E50.85575
G1 X161.903 Y151.032 E50.96485
G1 X161.086 Y151.112 E51.00307
G1 X112.249 Y151.112 E53.27713
G1 X103.355 Y151.812 E53.69255
G1 X94.841 Y153.857 E54.10027
G1 X86.755 Y157.205 E54.50779
G1 X79.296 Y161.776 E54.91514
G1 X72.507 Y167.574 E55.33086
G1 X70.026 Y170.057 E55.4943
G1 X69.589 Y170.437 E55.52127
G1 X69.104 Y170.754 E55.54825
G1 X68.58 Y171.001 E55.57522
G1 X68.027 Y171.174 E55.6022
G1 X67.456 Y171.269 E55.62916
G1 X66.877 Y171.284 E55.65613
G1 X66.301 Y171.22 E55.68311
G1 X65.74 Y171.077 E55.71007
G1 X65.203 Y170.858 E55.73708
G1 X64.702 Y170.567 E55.76405
G1 X64.085 Y170.058 E55.8013
G1 X49.942 Y155.915 E56.73264
G1 X49.562 Y155.478 E56.75961
G1 X49.245 Y154.993 E56.78659
G1 X48.998 Y154.469 E56.81356
G1 X48.826 Y153.916 E56.84053
G1 X48.731 Y153.344 E56.86753
G1 X48.716 Y152.765 E56.8945
G1 X48.781 Y152.189 E56.92149
G1 X48.924 Y151.628 E56.94845
G1 X49.143 Y151.092 E56.97541
G1 X49.434 Y150.591 E57.00238
G1 X49.943 Y149.974 E57.03963
G1 X52.429 Y147.49 E57.20327
G1 X58.224 Y140.704 E57.61879
G1 X62.796 Y133.243 E58.02625
G1 X66.145 Y125.156 E58.43383
G1 X68.188 Y116.646 E58.84135
G1 X68.888 Y107.751 E59.25682
G1 X68.888 Y58.914 E61.53087
G0 F6000 X69.288 Y58.914
G1 F1200 X69.361 Y58.174 E61.5655
G1 X69.817 Y55.876 E61.67459
G1 X69.963 Y55.345 E61.70023
G1 X70.184 Y54.841 E61.72586
G1 X70.386 Y54.502 E61.74423
G1 X71.688 Y52.557 E61.85322
G1 X72.027 Y52.123 E61.87886
G1 X72.425 Y51.742 E61.90452
G1 X72.732 Y51.513 E61.92235
G1 X74.677 Y50.211 E62.03134
G1 X75.156 Y49.939 E62.05699
G1 X75.669 Y49.738 E62.08264
G1 X76.05 Y49.642 E62.10094
G1 X78.349 Y49.185 E62.21008
G1 X79.09 Y49.112 E62.24475
G1 X161.086 Y49.112 E66.06283
G1 X161.827 Y49.185 E66.0975
G1 X164.125 Y49.642 E66.2066
G1 X164.656 Y49.788 E66.23225
G1 X165.161 Y50.01 E66.25793
G1 X165.498 Y50.211 E66.2762
G1 X167.443 Y51.513 E66.38519
G1 X167.877 Y51.852 E66.41083
G1 X168.258 Y52.25 E66.43649
G1 X168.487 Y52.557 E66.45432
G1 X169.789 Y54.502 E66.56331
G1 X170.061 Y54.981 E66.58896
G1 X170.262 Y55.494 E66.61461
G1 X170.358 Y55.875 E66.63291
G1 X170.815 Y58.173 E66.74201
G1 X170.888 Y58.914 E66.77668
G1 X170.888 Y140.91 E70.59476
G1 X170.815 Y141.651 E70.62943
G1 X170.358 Y143.95 E70.73857
G1 X170.212 Y144.481 E70.76422
G1 X169.99 Y144.986 E70.7899
G1 X169.789 Y145.323 E70.80818
G1 X168.487 Y147.268 E70.91716
G1 X168.148 Y147.702 E70.94281
G1 X167.75 Y148.083 E70.96846
G1 X167.443 Y148.312 E70.98629
G1 X165.498 Y149.614 E71.09528
G1 X165.019 Y149.886 E71.12093
G1 X164.506 Y150.087 E71.14659
G1 X164.124 Y150.183 E71.16493
G1 X161.826 Y150.639 E71.27402
G1 X161.086 Y150.712 E71.30864
G1 X112.23 Y150.712 E73.58358
G1 X103.293 Y151.415 E74.00101
G1 X94.721 Y153.474 E74.41151
G1 X86.57 Y156.85 E74.82233
G1 X79.06 Y161.451 E75.23243
G1 X72.233 Y167.282 E75.6505
G1 X69.743 Y169.774 E75.81453
G1 X69.326 Y170.134 E75.84018
G1 X68.862 Y170.431 E75.86584
G1 X68.359 Y170.657 E75.89151
G1 X67.83 Y170.808 E75.91713
G1 X67.283 Y170.881 E75.94283
G1 X66.732 Y170.874 E75.96849
G1 X66.188 Y170.788 E75.99413
G1 X65.662 Y170.624 E76.01979
G1 X65.166 Y170.385 E76.04542
G1 X64.709 Y170.077 E76.07109
G1 X64.368 Y169.775 E76.0923
G1 X50.225 Y155.632 E77.02364
G1 X49.865 Y155.215 E77.04929
G1 X49.568 Y154.751 E77.07494
G1 X49.342 Y154.248 E77.10062
G1 X49.191 Y153.718 E77.12628
G1 X49.119 Y153.172 E77.15192
G1 X49.126 Y152.621 E77.17758
G1 X49.212 Y152.077 E77.20323
G1 X49.377 Y151.551 E77.2289
G1 X49.616 Y151.054 E77.25458
G1 X49.924 Y150.598 E77.2802
G1 X50.226 Y150.257 E77.30141
G1 X52.719 Y147.766 E77.46551
G1 X58.549 Y140.94 E77.88351
G1 X63.151 Y133.428 E78.29372
G1 X66.527 Y125.277 E78.70453
G1 X68.585 Y116.707 E79.11493
G1 X69.288 Y107.77 E79.53236
G1 X69.288 Y58.914 E81.8073
G0 F6000 X69.688 Y58.914
G1 F1200 X69.753 Y58.252 E81.83828
G1 X70.209 Y55.954 E81.94737
G1 X70.349 Y55.452 E81.97164
G1 X70.565 Y54.978 E81.99589
G1 X70.719 Y54.725 E82.00968
G1 X72.021 Y52.78 E82.11867
G1 X72.343 Y52.37 E82.14294
G1 X72.724 Y52.015 E82.16719
G1 X72.955 Y51.846 E82.18052
G1 X74.9 Y50.544 E82.28951
G1 X75.354 Y50.288 E82.31378
G1 X75.841 Y50.104 E82.33802
G1 X76.128 Y50.034 E82.35177
G1 X78.427 Y49.577 E82.46092
G1 X79.09 Y49.512 E82.49194
G1 X161.086 Y49.512 E86.31002
G1 X161.749 Y49.577 E86.34104
G1 X164.047 Y50.034 E86.45014
G1 X164.549 Y50.175 E86.47442
G1 X165.023 Y50.39 E86.49865
G1 X165.275 Y50.544 E86.5124
G1 X167.22 Y51.846 E86.62139
G1 X167.63 Y52.168 E86.64566
G1 X167.985 Y52.549 E86.66991
G1 X168.154 Y52.78 E86.68324
G1 X169.456 Y54.725 E86.79223
G1 X169.712 Y55.179 E86.8165
G1 X169.896 Y55.666 E86.84074
G1 X169.966 Y55.953 E86.85449
G1 X170.423 Y58.251 E86.96359
G1 X170.488 Y58.914 E86.99461
G1 X170.488 Y140.91 E90.81269
G1 X170.423 Y141.573 E90.84371
G1 X169.966 Y143.872 E90.95286
G1 X169.825 Y144.374 E90.97714
G1 X169.61 Y144.848 E91.00137
G1 X169.456 Y145.1 E91.01512
G1 X168.154 Y147.045 E91.12411
G1 X167.832 Y147.455 E91.14839
G1 X167.451 Y147.81 E91.17263
G1 X167.22 Y147.979 E91.18596
G1 X165.275 Y149.281 E91.29495
G1 X164.821 Y149.537 E91.31922
G1 X164.334 Y149.721 E91.34346
G1 X164.046 Y149.791 E91.35726
G1 X161.748 Y150.247 E91.46635
G1 X161.086 Y150.312 E91.49732
G1 X112.224 Y150.312 E93.77254
G1 X103.226 Y151.02 E94.19282
G1 X94.594 Y153.093 E94.60619
G1 X86.39 Y156.491 E95.01968
G1 X78.82 Y161.129 E95.43307
G1 X71.966 Y166.983 E95.85278
G1 X69.46 Y169.491 E96.01787
G1 X69.065 Y169.831 E96.04214
G1 X68.622 Y170.105 E96.06639
G1 X68.142 Y170.309 E96.09068
G1 X67.637 Y170.438 E96.11495
G1 X67.118 Y170.487 E96.13922
G1 X66.598 Y170.457 E96.16348
G1 X66.089 Y170.348 E96.18772
G1 X65.602 Y170.162 E96.21199
G1 X65.149 Y169.904 E96.23627
G1 X64.651 Y169.492 E96.26636
G1 X50.508 Y155.349 E97.1977
G1 X50.169 Y154.953 E97.22198
G1 X49.894 Y154.511 E97.24622
G1 X49.69 Y154.031 E97.2705
G1 X49.562 Y153.526 E97.29476
G1 X49.513 Y153.007 E97.31903
G1 X49.543 Y152.487 E97.34329
G1 X49.653 Y151.977 E97.36758
G1 X49.839 Y151.491 E97.39181
G1 X50.097 Y151.038 E97.41609
G1 X50.509 Y150.54 E97.44618
G1 X53.018 Y148.033 E97.61134
G1 X58.871 Y141.18 E98.03099
G1 X63.51 Y133.608 E98.44448
G1 X66.908 Y125.404 E98.85797
G1 X68.98 Y116.774 E99.27123
G1 X69.688 Y107.776 E99.69151
G1 X69.688 Y58.914 E101.96673
G0 F6000 X70.088 Y58.914
G1 F1200 X70.145 Y58.33 E101.99406
G1 X70.601 Y56.032 E102.10315
G1 X70.736 Y55.561 E102.12596
G1 X71.051 Y54.947 E102.15809
G1 X72.353 Y53.002 E102.26708
G1 X72.658 Y52.619 E102.28988
G1 X73.177 Y52.178 E102.32159
G1 X75.122 Y50.876 E102.43058
G1 X75.55 Y50.638 E102.45338
G1 X76.206 Y50.427 E102.48547
G1 X78.505 Y49.97 E102.59462
G1 X79.09 Y49.912 E102.62199
G1 X161.086 Y49.912 E106.44007
G1 X161.671 Y49.97 E106.46744
G1 X163.969 Y50.427 E106.57654
G1 X164.44 Y50.561 E106.59934
G1 X165.053 Y50.876 E106.63143
G1 X166.998 Y52.178 E106.74042
G1 X167.381 Y52.483 E106.76322
G1 X167.822 Y53.002 E106.79493
G1 X169.124 Y54.947 E106.90392
G1 X169.362 Y55.375 E106.92672
G1 X169.573 Y56.031 E106.95881
G1 X170.03 Y58.329 E107.06791
G1 X170.088 Y58.914 E107.09528
G1 X170.088 Y140.91 E110.91336
G1 X170.03 Y141.495 E110.94073
G1 X169.573 Y143.794 E111.04988
G1 X169.439 Y144.265 E111.07268
G1 X169.124 Y144.878 E111.10477
G1 X167.822 Y146.823 E111.21376
G1 X167.517 Y147.206 E111.23656
G1 X166.998 Y147.647 E111.26827
G1 X165.053 Y148.949 E111.37726
G1 X164.625 Y149.187 E111.40006
G1 X163.968 Y149.399 E111.43221
G1 X161.67 Y149.855 E111.5413
G1 X161.086 Y149.912 E111.56862
G1 X112.205 Y149.912 E113.84472
G1 X103.165 Y150.624 E114.26697
G1 X94.474 Y152.711 E114.68316
G1 X86.205 Y156.135 E115.0999
G1 X78.584 Y160.805 E115.5161
G1 X71.699 Y166.685 E115.9377
G1 X69.177 Y169.209 E116.10384
G1 X68.804 Y169.525 E116.1266
G1 X68.384 Y169.777 E116.14941
G1 X67.929 Y169.958 E116.17221
G1 X67.451 Y170.062 E116.19499
G1 X66.962 Y170.087 E116.21779
G1 X66.476 Y170.032 E116.24056
G1 X66.005 Y169.898 E116.26337
G1 X65.562 Y169.69 E116.28616
G1 X65.159 Y169.413 E116.30893
G1 X64.934 Y169.209 E116.32307
G1 X50.791 Y155.066 E117.25441
G1 X50.474 Y154.693 E117.2772
G1 X50.222 Y154.273 E117.30001
G1 X50.042 Y153.818 E117.32279
G1 X49.938 Y153.34 E117.34557
G1 X49.913 Y152.851 E117.36837
G1 X49.969 Y152.365 E117.39115
G1 X50.102 Y151.894 E117.41394
G1 X50.311 Y151.451 E117.43675
G1 X50.588 Y151.048 E117.45952
G1 X50.791 Y150.823 E117.47363
G1 X53.316 Y148.3 E117.63984
G1 X59.195 Y141.416 E118.06137
G1 X63.866 Y133.793 E118.47767
G1 X67.291 Y125.523 E118.89447
G1 X69.376 Y116.837 E119.31042
G1 X70.088 Y107.795 E119.73276
G1 X70.088 Y58.914 E122.00886
